X:192
T:Sister's Return
F:file ID: cre.5/192sis_r
B:CRE5.019 (Filleadh na DeirfÃÂÃÂÃÂÃÂ©ar)
M:6/8
Q:160
R:jig
K:D
f/e/|dcd AFD|GBG AFE|DFA dfd|cBc Afe|
dcd AFD|GBG AFE|DFA dFA|DED D2:|
F/G/|AFA dcd|BGB eBe|cBc Afe|dcB AFG|
AFA dcd|BGB ecB|Ace dAF|DED D2:|
F|GFG Eed|cBc AGF|GFG Ecd|ecB A2A|
dfd ecA|GFG AFE|DFA dFA|DED D2:|

%%%

